X:1
T:Devil's Dream
M:C|
L:1/8
K:A
|: eg | agae agae | agae fedc | dfBf dfBf | dfBf gfeg |
agae agae | agae fedc | Bcde gfed | cABc A6 :|
|: ed | ceAe ceAe | ceAe fedc | dfBf dfBf | dfBf gfed |
ceAe ceAe | ceAe fedc | Bcde gfed | cABc A6 :|

